X: 6621
T: Cave, The
R: reel
M: 4/4
K: Eminor
e2ge g2ed|edBA BABd|e2geg2ed|edBG G~A3|
e2ge g2ed|edBA BAGB|~A3B AGFA|1 GEFD EBdB:|2 GEFD E2z2||
|:E2GE FGAG-|-GABc BGFG|E2GE FGAG-|GABA- ABcB|
E2GE FGAG-|-GABc BGFG|1 E2GE FGAG|z1BcBz1 BcB:|2 E2GE FGAB-|Beed ABdf||

